X:103
T:Catch and Kiss the Romp
R:Reel
B:The Athole Collection
M:C|
L:1/8
K:A Minor
d|:G<G GA ~_B2 Bg|ecgc aceg|G<G GA _B2 B>a|gefd c/c/c ~g2:|
|:e/f/g g_b _Bdfd|ecgc aceg|1 e/f/g g_b ~_Bdfd|gefd c/c/c g2:|2
e/f/g ga _bgf_e|d_Bfd c/c/c g2||

